!!!COM: Bach, Johann Sebastian
!!!OPR: Joh. Seb. Bachs vierstimmige Choralgesänge
!!!XEN: Four-part Chorales
!!!OTL: 69. Gott sei gelobet
!!!SCT: BWV 322
!!!SCA: Thematisch-systematisches Verzeichnis der musikalischen Werke Johann Sebastian Bach: Bach-Werke-Verzeichnis (Schmieder)
!!!YOR: Bach Gesellschaft Edition xxxix
!!!ENC: Steven Rasmussen
!!!CDT: 1685/3//-1750/7/28/
!!!OCY: Deutschland
!!!YEC: Copyright (c) 1994, 2000 Center for Computer Assisted Research in the Humanities
!!!YEM: Rights to all derivative editions reserved
!!!YEN: United States of America
**kern	**silbe	**kern	**silbe	**kern	**silbe	**kern	**silbe
*I:[BASSO]	*I:[BASSO]	*I:[TENORE]	*I:[TENORE]	*I:[ALTO]	*I:[ALTO]	*I:[SOPRANO]	*I:[SOPRANO]
*>[A,A,B]	*	*>[A,A,B]	*	*>[A,A,B]	*	*>[A,A,B]	*
*>A	*	*>A	*	*>A	*	*>A	*
*clefF4	*	*clefGv2	*	*clefG2	*	*clefG2	*
*k[]	*	*k[]	*	*k[]	*	*k[]	*
*C:	*	*C:	*	*C:	*	*C:	*
*M4/4	*	*M4/4	*	*M4/4	*	*M4/4	*
8GGL	.	8BL	.	4d	.	4g	Gottmit
8AAJ	.	8cJ	.	.	.	.	.
=1	=1	=1	=1	=1	=1	=1	=1
4BB	.	4d	.	8gL	.	4g	seisei-
.	.	.	.	8fJ	.	.	.
8EL	.	8cL	.	4e	.	4g	ge--nem
8DJ	.	8BJ	.	.	.	.	.
4C	.	4c	.	4e	.	2a	-lo-Flei-
4F	.	8BL	.	4d	.	.	.
.	.	8AJ	.	.	.	.	.
=2	=2	=2	=2	=2	=2	=2	=2
2E;	.	2B;	.	2e;	.	2g;	-bet-sche
8EL	.	4e	.	4g	.	4cc	undund
8DJ	.	.	.	.	.	.	.
8CL	.	4f	.	4g	.	4dd	ge-mit
8BBJ	.	.	.	.	.	.	.
=3	=3	=3	=3	=3	=3	=3	=3
4C	.	4e	.	8gL	.	4cc	-be-sei-
.	.	.	.	8f#J	.	.	.
4GG	.	4d	.	4g	.	4b	-ne--nem
4D	.	4.d	.	8gL	.	2a	-dei-Blu-
.	.	.	.	16f#L	.	.	.
.	.	.	.	16eJJ	.	.	.
4DD	.	.	.	4f#	.	.	.
.	.	8c	.	.	.	.	.
=4	=4	=4	=4	=4	=4	=4	=4
2GG;	.	2B;	.	2d;	.	2g;	-et,-te;
4D	.	4d	.	4f	.	8aL	derdas
.	.	.	.	.	.	8bJ	.
4AA	.	4c	.	8fL	.	4cc	unsgib
.	.	.	.	8eJ	.	.	.
=5	=5	=5	=5	=5	=5	=5	=5
4BB	.	4d	.	4d	.	8gL	sel-uns,
.	.	.	.	.	.	8fJ	.
8CL	.	4G	.	4c	.	4e	-berHerr
8BBJ	.	.	.	.	.	.	.
4AA	.	4F	.	8cL	.	4f	hatGott,
.	.	.	.	8BJ	.	.	.
4GG	.	4G	.	4c	.	4e	ge-zu
=6	=6	=6	=6	=6	=6	=6	=6
4FF	.	4A	.	8cL	.	2d	-spei-Gu-
.	.	.	.	16BL	.	.	.
.	.	.	.	16AJJ	.	.	.
4GG	.	8GL	.	4B	.	.	.
.	.	8FJ	.	.	.	.	.
4CC;	.	4E;	.	4G;	.	4c;	-set-te!
=:|!	=:|!	=:|!	=:|!	=:|!	=:|!	=:|!	=:|!
*>B	*	*>B	*	*>B	*	*>B	*
4C	.	4c	.	4e	.	4g	Ky-
=7	=7	=7	=7	=7	=7	=7	=7
8BBL	.	8GL	.	8dL	.	4g	-rie
8AAJ	.	8AJ	.	8cJ	.	.	.
4GG	.	4B	.	8dL	.	4g	e-
.	.	.	.	8fJ	.	.	.
8CL	.	8cL	.	8eL	.	4.a	-lei-
8DJ	.	8F#	.	16dL	.	.	.
.	.	.	.	16cJ	.	.	.
4E	.	8G	.	8B	.	.	.
.	.	8AJ	.	8c#J	.	8g	.
=8	=8	=8	=8	=8	=8	=8	=8
4D	.	4B	.	8d	.	8f#L	.
.	.	.	.	4g	.	8gJ	.
4DD	.	16ALL	.	.	.	4a	.
.	.	16BJ	.	.	.	.	.
.	.	8cJ	.	8f#	.	.	.
2GG;	.	2B;	.	2d;	.	2g;	-son.
=9	=9	=9	=9	=9	=9	=9	=9
8GL	.	4B	.	4d	.	4g	Herr,
8F#J	.	.	.	.	.	.	.
4E	.	8BL	.	4e	.	4g	durch
.	.	8c#J	.	.	.	.	.
8DL	.	4d	.	4f#	.	4a	dei-
8CJ	.	.	.	.	.	.	.
4BB	.	4d	.	4g	.	4b	-nen
=10	=10	=10	=10	=10	=10	=10	=10
4AA	.	4c	.	8gL	.	4cc	heil'-
.	.	.	.	8f#J	.	.	.
8BBL	.	4d	.	4g	.	4b	-gen
8GGJ	.	.	.	.	.	.	.
8CL	.	8eL	.	8gL	.	2a	Leich-
8AAJ	.	8c	.	16f#L	.	.	.
.	.	.	.	16eJJ	.	.	.
4D	.	8A	.	4f#	.	.	.
.	.	16dL	.	.	.	.	.
.	.	16cJJ	.	.	.	.	.
=11	=11	=11	=11	=11	=11	=11	=11
2GG;	.	2B;	.	2d;	.	2g;	-nam,
8GL	.	4d	.	4g	.	4b	der
8FJ	.	.	.	.	.	.	.
4E	.	4e	.	4g	.	4cc	von
=12	=12	=12	=12	=12	=12	=12	=12
4.BB	.	8dL	.	4g	.	4dd	dei-
.	.	8cJ	.	.	.	.	.
.	.	4B	.	4g	.	4dd	-ner
8E	.	.	.	.	.	.	.
4AA	.	4c	Mutt'r	8g	Mut-	4dd	Mutt'r
.	.	.	.	16f#LL	-ter	.	.
.	.	.	.	16eJJ	.	.	.
4D	.	8dL	Ma-	8f#L	Ma-	4a	Ma-
.	.	8cJ	.	8fnJ	.	.	.
=13	=13	=13	=13	=13	=13	=13	=13
4GG	ri-	4B-	-ri-	8eL	-ri-	4g	-ri-
.	.	.	.	8dJ	.	.	.
4AA	-a	8.AL	-a	8dL	-a	4e	-a
.	.	.	.	8c#J	.	.	.
.	.	16GJk	.	.	.	.	.
2D;	.	2F;	.	2A;	.	2d;	kam,
=14	=14	=14	=14	=14	=14	=14	=14
8CL	.	4G	.	4c	.	4e	und
8BBJ	.	.	.	.	.	.	.
4AA	.	4A	.	4c	.	4f#	das
4BB	hei-	4G	hei-	4d	hei-	8gL	hei-
.	.	.	.	.	.	8fnJ	.
8CL	.	4G	-li-	[4c	-li-	4e	-li-
8BBJ	.	.	.	.	.	.	.
=15	=15	=15	=15	=15	=15	=15	=15
4AA	-li-	8AL	-ge	8cL]	.	2f#	-ge
.	.	8c	.	8eJ	.	.	.
4D	-ge	8B	.	8dL	-ge	.	.
.	.	8AJ	.	8cJ	.	.	.
2GG;	.	2G;	.	2B;	.	2g;	Blut
=16	=16	=16	=16	=16	=16	=16	=16
4GG	.	4G	.	4B	.	8dL	hilf
.	.	.	.	.	.	8eJ	.
8AAL	.	8CL	.	4A	.	4f	uns,
8BBJ	.	8DJ	.	.	.	.	.
8CL	.	8EL	.	8GL	.	4e	Herr,
8EJ	.	8GJ	.	8cJ	.	.	.
8GL	.	4G	.	4B	.	4d	aus
8FJ	.	.	.	.	.	.	.
=17	=17	=17	=17	=17	=17	=17	=17
8EL	.	4G	.	4.c	.	4e	al-
8CJ	.	.	.	.	.	.	.
8GL	.	8.GL	.	.	.	4d	-ler
8GGJ	.	.	.	8B	.	.	.
.	.	16FJk	.	.	.	.	.
2C;	.	2E;	.	2G;	.	2c;	Not.
=18	=18	=18	=18	=18	=18	=18	=18
4r	.	4r	.	4r	.	4r	.
4BB	.	8GL	.	4d	.	4g	Ky-
.	.	8FJ	.	.	.	.	.
4C	.	4E	.	4c	.	4g	-rie
4BB	.	8DL	.	4G	.	4g	e-
.	.	8EJ	.	.	.	.	.
=19	=19	=19	=19	=19	=19	=19	=19
8AAL	.	4F	.	8cL	.	4.a	-lei-
8BBJ	.	.	.	8dJ	.	.	.
4C	.	8cL	.	4e	.	.	.
.	.	8BJ	.	.	.	8g	.
2D	.	8A	.	2d	.	8f#L	.
.	.	4G	.	.	.	8gJ	.
.	.	.	.	.	.	4a	.
.	.	8F#	.	.	.	.	.
=20	=20	=20	=20	=20	=20	=20	=20
2.GG;	.	2.B;	.	2.d;	.	2.g;	-son.
==|!	==|!	==|!	==|!	==|!	==|!	==|!	==|!
*-	*-	*-	*-	*-	*-	*-	*-
!!!RWG: Key is interpreted using the Humdrum key tool.
!!!URL-pdf: https://s9.imslp.org/files/imglnks/usimg/6/6b/IMSLP24489-PMLP09471-CCARH_Bach_Chorales.pdf#page=48 Musedata edition
!!!URL-pdf: https://s9.imslp.org/files/imglnks/usimg/7/7a/IMSLP04155-Bach_-_BGA_253-438.pdf#page=37 	Bach-Gesellschaft Ausgabe, Band 39 (pp.175-276) Leipzig: Breitkopf und Härtel, 1892. Plate B.W. XXXIX.
!!!END: 1994/06/06
!!!EMD: Converted from MuseData to Humdrum Dec 19, 2000, by Andreas Kornstaedt using muse2kern.
!!!EED: Craig Stuart Sapp
!!!EEV: 2024/03/31
!!!ONB: Some non-unicode characters
!!!filter-keyboard: satb2gs
